<?xml version="1.0" encoding="UTF-8"?>
<map version="1.10" tiledversion="1.11.0" orientation="orthogonal" renderorder="right-down" width="20" height="17" tilewidth="16" tileheight="16" infinite="0" nextlayerid="5" nextobjectid="28">
 <tileset firstgid="1" source="island_tiles.tsx"/>
 <layer id="3" name="walls" width="20" height="17" visible="0">
  <data encoding="csv">
1,1,1,1,1,1,1,1,1,1,1,1,1,1,1,1,1,1,1,1,
1,1,1,1,0,0,0,0,0,0,1,1,1,0,0,0,0,0,0,1,
1,1,1,0,0,0,0,0,0,0,0,0,0,0,0,0,0,0,0,1,
1,1,1,0,0,0,0,0,0,0,0,0,0,0,0,0,0,0,0,1,
1,0,0,0,0,0,0,0,0,0,0,0,0,0,0,0,0,0,0,1,
1,0,0,0,0,0,0,0,0,0,0,0,0,0,0,0,0,0,0,1,
1,0,0,0,0,0,0,0,0,0,0,0,0,0,0,0,0,0,1,1,
1,0,0,0,0,0,0,0,0,0,0,0,0,0,0,0,0,0,0,1,
1,0,0,0,0,0,0,0,0,0,0,0,0,0,0,0,0,0,0,1,
1,0,0,0,0,0,0,0,0,0,0,0,0,0,0,0,0,0,0,1,
1,0,0,0,0,0,0,0,0,0,0,0,0,0,0,0,0,0,0,1,
1,0,0,0,0,0,0,0,0,0,0,0,0,0,0,0,0,0,0,1,
1,1,0,0,0,0,0,0,0,0,0,0,0,0,0,0,0,0,0,1,
1,1,0,0,0,0,0,0,0,0,0,0,0,0,0,0,0,0,0,1,
1,1,0,0,0,0,0,0,0,0,0,0,0,0,1,1,0,0,0,1,
1,1,0,0,0,0,0,1,1,1,1,0,0,0,1,1,0,0,0,1,
1,1,1,1,1,1,1,1,1,1,1,1,1,1,1,1,1,1,1,1
</data>
 </layer>
 <layer id="2" name="floor" width="20" height="17">
  <data encoding="csv">
0,0,0,0,0,0,0,0,0,0,0,0,0,0,0,0,0,0,0,0,
0,0,0,0,2,3,3,3,3,4,0,0,0,2,3,3,3,3,4,0,
0,0,0,2,21,18,15,18,15,22,3,3,3,21,18,15,15,15,17,0,
0,0,0,5,15,15,15,15,18,15,15,15,15,15,15,15,18,15,17,0,
0,2,3,21,15,18,18,18,18,18,15,18,18,15,18,18,15,15,17,0,
0,5,15,15,15,18,18,18,18,18,18,18,18,18,15,15,15,19,8,0,
0,5,18,15,15,15,18,18,15,15,18,18,15,18,18,15,15,17,0,0,
0,5,15,15,15,18,18,18,18,18,18,18,15,15,18,18,15,15,4,0,
0,5,15,15,18,18,15,18,18,15,15,18,15,18,15,18,15,15,17,0,
0,5,15,15,18,18,18,18,18,18,15,18,18,15,18,18,15,15,17,0,
0,5,15,15,18,15,15,18,15,15,18,18,15,15,15,15,18,15,17,0,
0,6,20,15,18,15,15,18,18,18,18,18,18,15,18,15,15,15,17,0,
0,0,5,15,18,18,15,15,18,15,15,18,15,15,15,15,15,15,17,0,
0,0,5,15,15,15,15,15,15,15,15,15,15,19,7,7,20,15,17,0,
0,0,5,15,15,15,19,7,7,7,7,20,15,17,0,0,5,15,17,0,
0,0,6,7,7,7,8,0,0,0,0,6,7,8,0,0,6,7,8,0,
0,0,0,0,0,0,0,0,0,0,0,0,0,0,0,0,0,0,0,0
</data>
 </layer>
 <objectgroup id="4" name="collision">
  <object id="3" x="64" y="0" width="96" height="16"/>
  <object id="4" x="48" y="16" width="16" height="16"/>
  <object id="5" x="16" y="32" width="32" height="32"/>
  <object id="6" x="160" y="16" width="48" height="16"/>
  <object id="7" x="208" y="0" width="96" height="16"/>
  <object id="8" x="304" y="16" width="16" height="80"/>
  <object id="9" x="288" y="91" width="16" height="21"/>
  <object id="11" x="304" y="112" width="16" height="144"/>
  <object id="12" x="0" y="64" width="16" height="128"/>
  <object id="13" x="16" y="187" width="16" height="69"/>
  <object id="18" x="32" y="251" width="80" height="5"/>
  <object id="20" x="176" y="251" width="48" height="5"/>
  <object id="21" x="224" y="219" width="32" height="5"/>
  <object id="22" x="256" y="251" width="48" height="5"/>
  <object id="23" x="240" y="224" width="16" height="32"/>
  <object id="24" x="224" y="224" width="16" height="32"/>
  <object id="25" x="112" y="234.75" width="64" height="5"/>
  <object id="26" x="112" y="240" width="16" height="16"/>
  <object id="27" x="160" y="240" width="16" height="16"/>
 </objectgroup>
</map>
